svgs/sharp-regular/ski-boot-ski.svg

<svg xmlns="http://www.w3.org/2000/svg" viewBox="0 0 640 512"><!--! Font Awesome Pro 6.6.0 by @fontawesome - https://fontawesome.com License - https://fontawesome.com/license (Commercial License) Copyright 2024 Fonticons, Inc. --><path d="M372.2 0l-3.7 19.5L366 32 176 32l-19.4 0-4.1 19-72 336-6.2 29 29.7 0 352 0 24 0 0-24 0-104 0-14.3-12.6-6.8-88.5-47.6 16.7-86.7 10-52 10-52L421.1 0 372.2 0zM262.3 80l94.4 0-8.4 43.5-7 36.5L304 160l-16 0 0 32 16 0 31.3 0-6.2 32L288 224l-16 0 0 32 16 0 57.9 0L432 302.3l0 65.7-298.3 0 24-112 55 0 13 0 2.7-12.7L262.3 80zm-32.7 0l-30 144-35.1 0L195.4 80l34.3 0zM640 408l0-24-48 0 0 24 0 56L24 464 0 464l0 48 24 0 592 0 24 0 0-24 0-80z"/></svg>

<svg xmlns="http://www.w3.org/2000/svg" viewBox="0 0 640 512"><!--! Font Awesome Pro 6.4.0 by @fontawesome - https://fontawesome.com License - https://fontawesome.com/license (Commercial License) Copyright 2023 Fonticons, Inc. --><path d="M372.2 0l-3.7 19.5L366 32H176 156.6l-4.1 19-72 336-6.2 29H104 456h24V392 288 273.7l-12.6-6.8-88.5-47.6 16.7-86.7 10-52 10-52L421.1 0H372.2zM262.3 80h94.4l-8.4 43.5-7 36.5H304 288v32h16 31.3l-6.2 32H288 272v32h16 57.9L432 302.3V368H133.7l24-112h55 13l2.7-12.7L262.3 80zm-32.7 0l-30 144H164.5L195.4 80h34.3zM640 408V384H592v24 56H24 0v48H24 616h24V488 408z"/></svg>
